img/svg/clock.svg

<svg width="50" height="56" viewBox="0 0 50 56" fill="none" xmlns="http://www.w3.org/2000/svg">
<g id="icon">
<path id="Union" fill-rule="evenodd" clip-rule="evenodd" d="M23 4H31V7H28V10.0213C31.8152 10.1846 35.3896 11.2772 38.5027 13.0786C40.354 11.1476 44.7551 13.2459 43.2635 16.7365C43.2309 16.704 43.1983 16.6716 43.1656 16.6393C47.3853 20.8089 50 26.5991 50 33C50 45.7025 39.7025 56 27 56C14.2975 56 4 45.7025 4 33C4 26.3297 6.83949 20.3226 11.3757 16.1215C11.1588 16.3222 10.9457 16.5272 10.7365 16.7364C8.70719 13.7075 13.3199 10.5817 15.4975 13.0784C18.6105 11.2771 22.1849 10.1846 26 10.0213V7H23V4Z" fill="#F0EBFF"/>
<path id="Union_2" fill-rule="evenodd" clip-rule="evenodd" d="M26 1H20V2L22 2L24 2H26V1ZM24 3H26H27V2V1V0H26H20H19V1V2V3H20H22V6.02135C18.5463 6.1691 15.2898 7.07848 12.3944 8.58582L12.2544 8.42496C10.7163 6.6569 8.39521 6.98255 6.95484 8.02395C6.21517 8.55874 5.60253 9.33813 5.35204 10.2775C5.09438 11.2438 5.24251 12.3031 5.90574 13.293L6.02865 13.4765C2.28444 17.5676 0 23.017 0 29C0 41.7025 10.2975 52 23 52C35.7025 52 46 41.7025 46 29C46 23.0401 43.7331 17.6096 40.0145 13.5238L40.183 13.1295C40.6454 12.0474 40.6748 11.0021 40.3518 10.087C40.0339 9.1862 39.4018 8.48773 38.6665 8.02632C37.2591 7.14319 35.1326 6.97177 33.777 8.39054L33.5955 8.58053C30.7025 7.07636 27.4497 6.16892 24 6.02135V3ZM23 7C19.1406 7 15.5133 7.99379 12.36 9.73944L12 9.94732C10.5856 10.7639 9.26738 11.735 8.06924 12.8421C3.72198 16.8612 1 22.6127 1 29C1 41.1503 10.8497 51 23 51C35.1503 51 45 41.1503 45 29C45 22.9249 42.5376 17.4248 38.5563 13.4436C38.4319 13.3192 38.306 13.1963 38.1787 13.0749C36.9153 11.8707 35.5126 10.8207 34 9.94741L33.6357 9.7371C30.4835 7.99291 26.8577 7 23 7ZM11.4975 9.07845C10.0109 9.93867 8.62944 10.9605 7.37728 12.12C7.15986 12.3212 6.94622 12.5267 6.73652 12.7364C6.51811 12.4104 6.37664 12.0833 6.30079 11.7622C5.75443 9.44925 8.61277 7.44804 10.6466 8.42332C10.9539 8.57068 11.2424 8.78599 11.4975 9.07845ZM34.5027 9.07856C36.0672 9.98386 37.5152 11.0682 38.8186 12.3035C38.9688 12.4458 39.1171 12.5902 39.2635 12.7365C39.43 12.3468 39.523 11.9745 39.5544 11.6232C39.7632 9.28719 37.2441 7.88062 35.4507 8.48214C35.0978 8.60048 34.7731 8.79655 34.5027 9.07856ZM23 31C24.1046 31 25 30.1046 25 29C25 28.2049 24.536 27.5182 23.8641 27.1958L22.9501 27.0006C21.8686 27.0271 21 27.9121 21 29C21 30.1046 21.8954 31 23 31ZM22.3638 26.0676L21.0176 21.1316L20.9778 20.9855L21.0257 20.8419L22.5257 16.3419L23 14.9189L23.4743 16.3419L24.9743 20.8419L25.0222 20.9855L24.9824 21.1316L23.6362 26.0676C23.7657 26.0956 23.8921 26.1319 24.0148 26.176L31.5642 12.7549L32.4358 13.2451L24.8861 26.6669C25.5656 27.2169 26 28.0577 26 29C26 30.6569 24.6569 32 23 32C21.3431 32 20 30.6569 20 29C20 27.5614 21.0125 26.3594 22.3638 26.0676ZM22.0222 21.0145L23 24.5997L23.9778 21.0145L23 18.0811L22.0222 21.0145Z" fill="#7859CF"/>
</g>
</svg>

<svg width="50" height="56" fill="none" xmlns="http://www.w3.org/2000/svg"><g fill-rule="evenodd" clip-rule="evenodd"><path d="M23 4h8v3h-3v3.021a22.873 22.873 0 0 1 10.503 3.058c1.851-1.931 6.252.167 4.76 3.657A22.93 22.93 0 0 1 50 33c.001 12.703-10.296 23-22.999 23S4 45.703 4 33c0-6.67 2.84-12.677 7.376-16.878-.217.2-.43.405-.64.614-2.029-3.029 2.584-6.154 4.761-3.658A22.873 22.873 0 0 1 26 10.021V7h-3V4Z" fill="#F0EBFF"/><path d="M26 1h-6v1h6V1Zm-2 2h3V0h-8v3h3v3.021a22.873 22.873 0 0 0-9.606 2.565l-.14-.161c-1.538-1.768-3.859-1.442-5.3-.401-.739.535-1.351 1.314-1.602 2.254-.258.966-.11 2.025.554 3.015l.123.184A22.917 22.917 0 0 0 0 29c0 12.703 10.297 23 23 23s23-10.297 23-23c0-5.96-2.267-11.39-5.986-15.476l.169-.394c.462-1.083.492-2.128.169-3.043-.318-.9-.95-1.6-1.685-2.06-1.408-.884-3.534-1.055-4.89.364l-.181.19A22.874 22.874 0 0 0 24 6.02V3Zm-1 4c-3.86 0-7.487.994-10.64 2.74l-.36.207a22.001 22.001 0 0 0-3.93 2.895A21.941 21.941 0 0 0 1 29c0 12.15 9.85 22 22 22s22-9.85 22-22a21.931 21.931 0 0 0-6.821-15.925A22 22 0 0 0 34 9.947l-.364-.21A21.9 21.9 0 0 0 23 7ZM11.498 9.078a23.077 23.077 0 0 0-4.761 3.658 2.981 2.981 0 0 1-.436-.974c-.547-2.313 2.312-4.314 4.346-3.339.307.148.595.363.85.655Zm23.005 0a23.081 23.081 0 0 1 4.76 3.659c.167-.39.26-.762.291-1.114.21-2.336-2.31-3.742-4.103-3.14a2.326 2.326 0 0 0-.948.596ZM23 31a2 2 0 0 0 .864-3.804L22.95 27A2 2 0 0 0 23 31Zm-.636-4.932-1.346-4.936-.04-.147.048-.143 1.5-4.5.474-1.423.474 1.423 1.5 4.5.048.143-.04.147-1.346 4.936c.13.028.256.064.379.108l7.55-13.421.87.49-7.549 13.422a3 3 0 1 1-2.522-.6Zm-.342-5.053L23 24.6l.978-3.585L23 18.08l-.978 2.934Z" fill="#7859CF"/></g></svg>
